X: 1
T: Trite p\^ati
P: contra dance arrangement
C: trad. Bulgarian (Thrace)
R: reel
S: Handout for MIT contra 2018-07-10 from Yaron Shragai
Z: 2018 John Chambers <jc:trillian.mit.edu>
M: C|
L: 1/8
K: Am
"A"|: "Am"eddE dccE | "Dm"cBBG "Am"ABcd |\
eddE "Dm"dccE |:1,3 cBBG "Am"~A2AE :|\
[2,4 cBBG "Am"~A4 \
"B"|: "Am"A2~B2 AG^FE | ^FGA2 "Dm"~B3A |
A2~B2 AG^FE | ^FGA2 "Am"~A4 \
"C":: "Am"AGAd ~A3G | AcBG ~A3E |\
AGAd "Dm"~A3G | AcBG "Am"A4 \
"D":: "Am"ABcd eGcG |
BGAA AGAB | "Dm"cccG cdBB |\
[1,3 BGAA "Am"AEAE :|[2 BGAA "Am"AEA2 :|\
[4 BGAA "Am"A2z2 \
"E"|: "G"~d2cB B_ABc | ~B2_AG GABc |
~d2cB B_Acd | ~B2_AG G4 \
"F":: "Am"eA~A2 AGcB | BG~A2 AAeA |\
eA~A2 "Dm"AGcB |[1 BG~A2 "Am"AEAE :|\
[2 BG~A2 "Am"A2z2 |] 
